X:1
T:Title
%%score { ( 1 3 ) | ( 2 4 ) }
L:1/8
Q:1/4=104
M:4/4
K:Bb
V:1 treble nm="Grand Piano"
V:3 treble 
V:2 bass 
V:4 bass 
V:1
 [DF]>[EG] [DF]>[Fd] [Ec]2 [DB]2 | [DF]>[EG] [DF]>[FB] [FA]2 G2 | F>G A>G F>G E>F | D6[K:bass] z2 | %4
w: Howard~K.~Carl * * * * *||||
 [DF]>[EG] [DF]>[Fd] [Ec]2 [DB]2 | [DF]>[EG] [DF]>[FB] [FA]2 G2 | F>F [Ge]>[Ge] d>d c>c | %7
w: |||
 [B,DB]6 z2 | [Fd]2 [Fd]2 [Fd]2 [Fd]2 | [DF]>[DG] [DB]>[DG] [EA]4 | e2 e2 e2 e2 | d>c [FB]>c d4 | %12
w: |||||
 B>F D>B, [B,EG]>[B,EG] [=B,FG]2 | [C=Ec]>G E>C A>A [FA]2 | [FB]>[FB] c>c d>d [_Af]>[Ge] | %15
w: |||
 [Fd]2 [Ec]2 [DB]4 |] %16
w: |
V:2
 [B,,B,]>[B,,B,] [B,,B,]>[B,,B,] [B,,F,]2 [B,,F,]2 | %1
 [B,,B,]>[B,,B,] [B,,B,]>[D,B,] [E,B,]2 [E,B,E]2 | %2
 [F,B,D]>[F,B,D] [F,B,D]>[F,B,D] [F,B,D]>[F,B,E] [F,A,C]>[F,A,] | [F,B,-]4 B,2 z2 | %4
 [B,,B,]>[B,,B,] [B,,B,]>[B,,B,] [B,,F,]2 [B,,F,]2 | %5
 [B,,B,]>[B,,B,] [B,,B,]>[D,B,] [E,B,]2 [E,B,E]2 | %6
 [F,B,D]>[F,B,D] [F,B,]>[F,B,] [F,A,F]>[F,A,F] [F,A,E]>[F,A,E] | B,,2 G,2 F,2 D,2 | %8
 [B,,B,]2 [B,,B,]2 [B,,B,]2 [B,,B,]2 | [B,,B,]>[B,,B,] [B,,F,]>[B,,F,] [C,F,]4 | %10
 [F,A,F]2 [G,B,F]2 [A,CF]2 [F,A,F]2 | [B,F]>[K:bass][F,A,F] [D,B,]>[K:treble][F,A,F] [B,F]4 | %12
 B,>F, D,>B,, E,>E, D,2 | C,>G, =E,>C, [F,CF]>[F,CF] [_E,C]2 | %14
 [D,B,]>[D,B,][K:treble] [F,A,F]>[F,A,F] [B,F]>[B,F][K:bass] [E,B,]>[E,B,] | %15
 [F,B,]2 [F,A,]2 [B,,B,]4 |] %16
V:3
 x8 | x8 | x8 | z2[K:bass] G,2 F,2 D,2 | x8 | x8 | x8 | x8 | x8 | x8 | x8 | x8 | x8 | x8 | x8 | %15
 x8 |] %16
V:4
 x8 | x8 | x8 | B,,2 z2 z4 | x8 | x8 | x8 | x8 | x8 | x8 | x8 | x3/2[K:bass] x2[K:treble] x9/2 | %12
 x8 | x8 | x2[K:treble] x4[K:bass] x2 | x8 |] %16

